src/lib/packages/icons/src/assets/filled/tablet.svg

<svg width="24" height="24" viewBox="0 0 24 24" fill="none" xmlns="http://www.w3.org/2000/svg">
<path d="M17 3H7C5 3 4 4 4 6V18C4 20 5 21 7 21H17C19 21 20 20 20 18V6C20 4 19 3 17 3ZM12 19C11.448 19 11 18.552 11 18C11 17.448 11.448 17 12 17C12.552 17 13 17.448 13 18C13 18.552 12.552 19 12 19ZM14 6.75H10C9.586 6.75 9.25 6.414 9.25 6C9.25 5.586 9.586 5.25 10 5.25H14C14.414 5.25 14.75 5.586 14.75 6C14.75 6.414 14.414 6.75 14 6.75Z" fill="currentColor"/>
</svg>

<svg xmlns="http://www.w3.org/2000/svg" width="24" height="24" fill="none"><path fill="currentColor" d="M17 3H7C5 3 4 4 4 6v12c0 2 1 3 3 3h10c2 0 3-1 3-3V6c0-2-1-3-3-3Zm-5 16a1 1 0 1 1 0-2 1 1 0 0 1 0 2Zm2-12.25h-4a.75.75 0 0 1 0-1.5h4a.75.75 0 0 1 0 1.5Z"/></svg>
